X:1
T:Title
%%score ( 1 2 ) { 3 | 4 }
L:1/8
Q:1/4=95
M:6/8
K:F
V:1 treble nm="Grand Piano, Soprano"
V:2 treble 
V:3 treble nm="Choir Pad, Yonder�s My Home"
V:4 bass 
V:1
 [Ac]2 [Ac] cAF | .G3 z3 | [EG]3 [Ec]2 [GB] | [FA]6 | [Ac]2 [Ac] cA[_EF] | .G3 z3 | %6
w: By~H.~S.~Blunt,~1891 * * * *||||||
 C2 B [CA]2 [CG] | [CF]6 | [EG]2 [EG] [EG]2 [EB] | [FA]2 [EG] F3 | [GB]3 [GB][Ac][Bd] | %11
w: |||||
 [Ac]3 .[FA]3 | F2 [_EF] [DF]2 [B,D] | [DF]2 [B,D] [A,C]3 | [EG]3 [EA]2 [EG] | F6 | %16
w: |||||
 [GB]2 [FB] Bc[Ed] | [Fc]2 [FA] [Fc]3 | z3 .F3 | [EG]6 | [FA]2 [FA] [_EA]2 [EF] | .G3 z3 | %22
w: ||||||
 C2 A [=B,A]2 [CG] | [CF]6- | [CF]3 z3 |] %25
w: |||
V:2
 z3 .F3 | E-[EA][CG] [CF]3 | x6 | x6 | z3 .F3 | D-[DF]D [B,D]3 | x6 | x6 | x6 | x6 | x6 | x6 | x6 | %13
 x6 | x6 | x6 | z3 .F3 | x6 | [CF]3 C-[CG][FA] | x6 | x6 | D-[DF]D [DF]3 | x6 | x6 | x6 |] %25
V:3
 C2 C A,CA, | B,CB, A,3 | C3 G,2[K:treble] C | C6 | C2 C A,2[K:bass] A, | B,2 B, B,3 | %6
 A,2 F, E,2 B, | A,6 | B,2 B, B,2 B, | C2 B, A,3 | C3 C2 C | C6 | A,2 C[K:bass] B,2 F, | %13
 F,2 F, F,3 | B,3 C2 B, | A,6 | C2 C .C3 | C2 C C3 | A,3 A,B,C | C6 | C2 C C2 C | %21
 B,2[K:bass] B, B,3 | A,2 F, F,2 E,/B,/ | A,6- | A,3 z3 |] %25
V:4
 F,2 F, F,2 F, | C,2 C, F,3 | C,3 C,2 E, | F,6 | F,2 F, F,2 F, | B,,2 B,, B,,3 | C,3 C,2 C, | F,6 | %8
 C,2 C, C,2 C, | F,2 C, F,3 | C,3 C,2 C, | F,6 | F,2 A,, B,,2 B,, | B,,2 B,, F,,3 | C,3 C,2 C, | %15
 F,6 | C,2 D, G,A,B, | A,2 F, F,3 | F,3 F,2 F, | C,6 | F,2 F, F,2 A,, | B,,2 B,, B,,3 | %22
 C,3 G,,2 C, | [F,,F,]6- | [F,,F,]3 z3 |] %25

